images/svg/HOME.svg

<svg width="33" height="30" viewBox="0 0 33 30" fill="none" xmlns="http://www.w3.org/2000/svg">
<path d="M32.9982 14.6502C33.0221 15.2088 32.8101 15.7515 32.4144 16.1451C32.0187 16.5389 31.4759 16.7471 30.9191 16.7185H28.6587V17.3041V26.5237V26.524C28.6769 27.3778 28.3471 28.2021 27.7456 28.8067C27.1439 29.4112 26.3226 29.7436 25.4711 29.7272H20.8216C19.8877 29.7272 19.3993 29.2341 19.3993 28.2845V22.8674C19.3993 21.4145 18.6765 20.3755 17.4192 19.9388C15.6536 19.3234 13.6968 20.5743 13.6275 22.4472C13.5582 24.3202 13.5748 26.2725 13.6045 28.1854C13.6045 29.1286 13.0898 29.7738 12.0567 29.7407C10.5322 29.6911 9.00421 29.7407 7.4797 29.7407V29.7405C6.64711 29.7449 5.84723 29.4162 5.25677 28.8276C4.66655 28.2387 4.33467 27.4382 4.33485 26.6033V17.4563V16.7183H2.17663C0.774091 16.7183 -0.0211965 15.9077 0.00207993 14.5044L0.00184974 14.5047C-0.00919918 13.8969 0.0292416 13.2894 0.117401 12.6878C0.267943 11.9524 0.689871 11.3012 1.29872 10.8645C5.58223 7.52877 9.86326 4.19115 14.142 0.85064C14.8047 0.3008 15.638 0 16.4982 0C17.3583 0 18.1916 0.30077 18.8543 0.85064C23.1134 4.17762 27.3747 7.50212 31.6387 10.8249C32.52 11.4724 33.0283 12.5127 32.9981 13.6081V14.6503L32.9982 14.6502Z" fill="#B6DDFF"/>
</svg>

<svg xmlns="http://www.w3.org/2000/svg" width="33" height="30" fill="none"><path fill="#B6DDFF" d="M32.998 14.65a1.989 1.989 0 0 1-.584 1.495 1.976 1.976 0 0 1-1.495.573h-2.26V26.524a3.142 3.142 0 0 1-.913 2.283 3.124 3.124 0 0 1-2.275.92h-4.65c-.933 0-1.422-.493-1.422-1.442v-5.418c0-1.453-.723-2.492-1.98-2.928-1.765-.616-3.722.635-3.792 2.508-.069 1.873-.052 3.826-.023 5.738 0 .944-.514 1.589-1.547 1.556-1.525-.05-3.053 0-4.577 0a3.125 3.125 0 0 1-2.223-.913 3.141 3.141 0 0 1-.922-2.225v-9.885H2.177c-1.403 0-2.198-.81-2.175-2.214-.011-.607.027-1.215.115-1.816A2.979 2.979 0 0 1 1.3 10.864C5.582 7.53 9.863 4.191 14.142.851a3.69 3.69 0 0 1 4.712 0c4.26 3.327 8.52 6.651 12.785 9.974a3.34 3.34 0 0 1 1.36 2.783v1.042Z"/></svg>
